X:1
T:Jackson's Bottle of Brandy -- Jig
R:jig
B:Ryan's Mammoth Collection
N: 111 623
Z: Contributed by Ray Davies,  ray:davies99.freeserve.co.uk
M:6/8
L:1/8
K:G
G2e dBG | ABG dBG | G2e dBG | A2A BGE |
G2e dBG | BAB def | gfe dcB | GBA BGE :|
|:gbg faf | ege dcB | gbg faf | g2a bge |
gbg faf | ege def | gfe dcB | ABA BGE :|
